X: 3
T: Missa Dominicalis / Credo
N: Derived from Ort1001c-Missa_Dominicalis-Credo.krn
C: Marbrianus de Orto
%%abc-version 2.0
%%abcx-abcm2ps-target-version 5.9.1 (29 Sep 2008)
%%abc-creator hum2abc beta
%%abcx-conversion-date 2019/02/17 07:28:36
%%abc-edited-by Jesse Rodin
%%abc-edited-by Jesse Rodin 8/11/2013
%%abcx-initial-encoding-date 2013/08/12/
%%humdrum-veritas 1038655823
%%humdrum-veritas-data 1346757630
%%linebreak <none>
%%barnumbers 0
L: 1/4
M: 3/1
Q: 1/2=120
%%staves [1 2 3 4]
V: 1 clef=treble
V: 2 clef=treble-8
V: 3 clef=treble-8
V: 4 clef=bass
K: F
[V:1] z12 | 
[V:2] d8G4 | 
[V:3] z12 | 
[V:4] z12 | 
[V:1] d8G4 | 
[V:2] g4f2d2_e2dc | 
[V:3] z12 | 
[V:4] z12 | 
[V:1] d4c2B2A4 | 
[V:2] B2f3eg4^f2 | 
[V:3] z12 | 
[V:4] z12 | 
[V:1] G8z4 | 
[V:2] g3fd4_e3d | 
[V:3] z12 | 
[V:4] G,8C,4 | 
[V:1] z12 | 
[V:2] B4A4z4 | 
[V:3] d8G4 | 
[V:4] G,4F,2D,2_E,2D,C, | 
[V:1] z12 | 
[V:2] z12 | 
[V:3] d4c2B2A4 | 
[V:4] B,,C,D,E,F,2G,4^F,2 | 
[V:1] z12 | 
[V:2] d4f4g4 | 
[V:3] G4A4c4 | 
[V:4] G,3F,D,4E,4 | 
[V:1] A4c4d4 | 
[V:2] f2edc2A2a4- | 
[V:3] d4e4f4 | 
[V:4] D,4A,4D,4 | 
[V:1] cdefe2d4^c2 | 
[V:2] a4z2a6- | 
[V:3] e2d2g2f2e4 | 
[V:4] A,2D,2C,2D,2A,4 | 
[V:1] d4A2B2c2c2 | 
[V:2] a2f4d2c2A2 | 
[V:3] d8e2f2 | 
[V:4] D,4z4A,2A,2 | 
[V:1] d4c3BA4 | 
[V:2] B2A2z2a3gfe | 
[V:3] g2f2e4z2d2- | 
[V:4] G,2D,2A,4D,2D,2 | 
[V:1] G4d4_e4 | 
[V:2] d2e2g8 | 
[V:3] d2c2=B4c4 | 
[V:4] G,8C,4 | 
[V:1] d2B2c4d4 | 
[V:2] g4c4z4 | 
[V:3] z4e4f4 | 
[V:4] G,4A,2C2B,2D2 | 
[V:1] c2c4B2c2d2 | 
[V:2] c4f2g2e2d2 | 
[V:3] e4d4c2f2 | 
[V:4] A,4z2G,2A,2B,2 | 
[V:1] GAB2F2G3^F/=E/F2 | 
[V:2] z2B2A2G2A4 | 
[V:3] e2d4c2d4 | 
[V:4] C2G,2D,2E,2D,4 | 
[V:1] G4E4F4 | 
[V:2] G4c4z4 | 
[V:3] z4z4d4 | 
[V:4] z2G,2A,2C2B,4- | 
[V:1] G4A4G2F2 | 
[V:2] d4f4g2a2- | 
[V:3] G4F4c2d2 | 
[V:4] B,4A,2F,2E,2D,2 | 
[V:1] E4z4z4 | 
[V:2] age3dB2A2c2 | 
[V:3] c3BA2G2F2G2 | 
[V:4] A,4z4D,2E,2 | 
[V:1] F2E2G4A4 | 
[V:2] d2c2d6c2 | 
[V:3] A2c2B4A2A2 | 
[V:4] D,2A,2G,4D,2F,2- | 
[V:1] A4B4A2d2- | 
[V:2] f4g4a4 | 
[V:3] c4d8 | 
[V:4] F,G,A,2G,4F,2D,2 | 
[V:1] d2c2A4z2c2- | 
[V:2] z2A2c6A2 | 
[V:3] e4f3ec4 | 
[V:4] A,4F,3G,A,4 | 
[V:1] cBA2G2F2E4 | 
[V:2] F4z4z4 | 
[V:3] f4e2d4^c2 | 
[V:4] z2D,2E,2F,2G,2A,2 | 
[V:1] D4z4z4 | 
[V:2] G3ABGg4^f2 | 
[V:3] d4z4z4 | 
[V:4] B,3CD2B,2A,4 | 
[V:1] z12 | 
[V:2] g2G2c2A2B2c2 | 
[V:3] z4z4e4 | 
[V:4] G,2G,2E,2F,2G,2A,2 | 
[V:1] A4B4c4 | 
[V:2] d4G2d2e4 | 
[V:3] f4g8 | 
[V:4] D,4z2G,2C,4 | 
[V:1] A4c4d4 | 
[V:2] d4A4B3G | 
[V:3] f4e4d4 | 
[V:4] D,4z4G,3F,/E,/ | 
[V:1] d4_e4d4 | 
[V:2] A2B2c4Bcde | 
[V:3] d4G4z2d2 | 
[V:4] D,4C,4G,2B,2 | 
[V:1] z2B2c2d4c2 | 
[V:2] f2g3fd2e4 | 
[V:3] c2d2c2B2A4 | 
[V:4] A,2G,2z4z4 | 
[V:1] d2d4c4=B2 | 
[V:2] d2f2g2c2d4 | 
[V:3] z12 | 
[V:4] B,4G,2A,2G,4 | 
[V:1] c4z4G4 | 
[V:2] c4A4G4 | 
[V:3] G4F2A2c4 | 
[V:4] C,4D,2F,2E,4 | 
[V:1] F2A3GG4^F2 | 
[V:2] A2F2B4A4 | 
[V:3] d12- | 
[V:4] D,4G,4D,4 | 
[V:1] G8z2G2 | 
[V:2] B2G2c2BAG2c2 | 
[V:3] d4e8 | 
[V:4] G,4C,8 | 
[V:1] F2A2G2F2E4 | 
[V:2] A3Bc2A2z2A2- | 
[V:3] f4e2d4^c2 | 
[V:4] D,2F,2C,2D,2A,4 | 
[V:1] F2D2G4A4 | 
[V:2] A2B4B2A2a2- | 
[V:3] d8d4 | 
[V:4] D,2G,4G,2D,4 | 
[V:1] z4z2A2B4 | 
[V:2] agg4f2(3g2d2e2 | 
[V:3] c2B2A4G4 | 
[V:4] F,2G,2D,4z2G,2 | 
[V:1] A4F2G2A2c2- | 
[V:2] f4d4f4 | 
[V:3] F3GA2B2A3B | 
[V:4] D,6G,2F,3G, | 
[V:1] cBA3GG4^F2 | 
[V:2] e2f2d2e2d4 | 
[V:3] c2d2B2c2A4 | 
[V:4] A,2D,2G,2C,2D,4 | 
[V:1] G4z4z4 | 
[V:2] z2d2c2d2e2f2- | 
[V:3] G4A4z4 | 
[V:4] z4z2D,2C,2D,2 | 
[V:1] z4E2F2G4 | 
[V:2] fec3Ad2G4 | 
[V:3] z4z4d2c2 | 
[V:4] E,2F,2C,2D,2E,4 | 
[V:1] A8G4 | 
[V:2] F3GA2F2B4 | 
[V:3] d2e2f3ed4 | 
[V:4] D,2A,2F,2D,2G,4 | 
[V:1] E4F2F2E2F2 | 
[V:2] c4A4z4 | 
[V:3] z4d2d2c2A2 | 
[V:4] C,4D,2D,2A,2F,2 | 
[V:1] G2E2G4A4 | 
[V:2] z4G2c2d2d2- | 
[V:3] G2c3BAGF4 | 
[V:4] E,2C,3D,E,2D,2F,2 | 
[V:1] z4z2A2B4 | 
[V:2] dc/B/c2d2f3de2 | 
[V:3] G4A4z4 | 
[V:4] E,4D,4G,4 | 
[V:1] A2A2F2G3AB2- | 
[V:2] f2c2d2e2d2g2- | 
[V:3] z4A2c2d2d2 | 
[V:4] F,4D,2C,2G,4 | 
[V:1] BAG4^F2G4 | 
[V:2] gfd4d2e2d2 | 
[V:3] G2B2A4G4 | 
[V:4] _E,2G,2D,4G,4 | 
[V:1] z12 | 
[V:2] z2e2f2g2a4 | 
[V:3] d2c2d2e2f4 | 
[V:4] z12 | 
[V:1] z4z4F4- | 
[V:2] g2f2e4d4- | 
[V:3] e2d4^c2d4 | 
[V:4] z4A,4B,3C | 
[V:1] F4E2F2G4 | 
[V:2] d4G2d2B2G2 | 
[V:3] z2B2c2A2G2c2 | 
[V:4] D2D,2C,2D,2_E,3F, | 
[V:1] G2G2G4F2G2 | 
[V:2] d2_e3dBcd2=e2 | 
[V:3] B2c3BG2A2B2 | 
[V:4] G,2C,2_E,4D,2G,2 | 
[V:1] A3Bc4B2A2 | 
[V:2] f4g4G2A2 | 
[V:3] c2d2_e4d2f2- | 
[V:4] F,2D,2C,4G,2F,2 | 
[V:1] d3c/B/AGc2B2A2- | 
[V:2] B3c/d/_e2c2d2d2- | 
[V:3] f_ed2c2_e2d4 | 
[V:4] B,,4C,4G,2D,2 | 
[V:1] AGG2F2G4^F2 | 
[V:2] d2c2d2_e2d4- | 
[V:3] G3AB2c2A4 | 
[V:4] E,4D,2C,2D,4 | 
[V:1] G12 ||  
[V:2] d12 ||  
[V:3] G12 ||  
[V:4] G,12 ||  
[V:1]  [K:F] [K:clef=treble][M:2/1]z8 | 
[V:2]  [K:F] [K:clef=treble-8][M:2/1]G4B4 | 
[V:3]  [K:F] [K:clef=treble-8][M:2/1]z8 | 
[V:4]  [K:F] [K:clef=bass][M:2/1]G,8 | 
[V:1] z8 | 
[V:2] A4d4- | 
[V:3] z8 | 
[V:4] F,4G,4 | 
[V:1] z8 | 
[V:2] d4^c4 | 
[V:3] z8 | 
[V:4] F,4E,4 | 
[V:1] A4B4 | 
[V:2] d8 | 
[V:3] z8 | 
[V:4] D,4G,4 | 
[V:1] c6c2 | 
[V:2] e8 | 
[V:3] g8 | 
[V:4] C,8 | 
[V:1] c4c4 | 
[V:2] c8 | 
[V:3] f4g4 | 
[V:4] F,4E,2C,2 | 
[V:1] c8 | 
[V:2] A4c4 | 
[V:3] f4e4 | 
[V:4] F,4C,4 | 
[V:1] B4G4 | 
[V:2] d4B4 | 
[V:3] d4e4 | 
[V:4] G,8 | 
[V:1] A6B2 | 
[V:2] c4A4 | 
[V:3] f8- | 
[V:4] F,4F,4- | 
[V:1] c6Bc | 
[V:2] a4a4 | 
[V:3] f4e4 | 
[V:4] F,2G,2A,4 | 
[V:1] d8 | 
[V:2] f2g4f2 | 
[V:3] d8 | 
[V:4] B,4G,2B,2- | 
[V:1] z8 | 
[V:2] d4c4- | 
[V:3] f8 | 
[V:4] B,2A,G,A,4 | 
[V:1] d8 | 
[V:2] c2=BA=B4 | 
[V:3] g8- | 
[V:4] G,8 | 
[V:1] _e8 | 
[V:2] c8 | 
[V:3] g8 | 
[V:4] C,8 | 
[V:1] d8 | 
[V:2] A8 | 
[V:3] f6e2 | 
[V:4] D,8 | 
[V:1] B8 | 
[V:2] G4g4 | 
[V:3] d8 | 
[V:4] G,8 | 
[V:1] c6d_e | 
[V:2] g4e2g2- | 
[V:3] c8 | 
[V:4] C,4C4 | 
[V:1] d2c4B2 | 
[V:2] g2c2defg | 
[V:3] z8 | 
[V:4] B,2A,2G,4 | 
[V:1] c8 | 
[V:2] a2g4^f2 | 
[V:3] z8 | 
[V:4] F,2G,2A,4 | 
[V:1] d8 | 
[V:2] g8 | 
[V:3] B4d4 | 
[V:4] G,8 | 
[V:1] _e8 | 
[V:2] g6e2 | 
[V:3] c8 | 
[V:4] C,8 | 
[V:1] d4B4 | 
[V:2] f8- | 
[V:3] d8 | 
[V:4] B,,4z2B,2 | 
[V:1] c4B4 | 
[V:2] f4g4 | 
[V:3] c4d4 | 
[V:4] A,4G,4 | 
[V:1] c4d4 | 
[V:2] f4d4 | 
[V:3] c4B4 | 
[V:4] A,4G,4 | 
[V:1] c4c4- | 
[V:2] e8 | 
[V:3] A8- | 
[V:4] z8 | 
[V:1] c2B2A2G2 | 
[V:2] f3ec4 | 
[V:3] A8- | 
[V:4] F,6E,2 | 
[V:1] F8 ||  
[V:2] d8 ||  
[V:3] A8 ||  
[V:4] D,8 ||  
[V:1]  [K:F] [K:clef=treble][M:4/2]z8 | 
[V:2]  [K:F] [K:clef=treble-8][M:4/2]z4c4 | 
[V:3]  [K:F] [K:clef=treble-8][M:4/2]z8 | 
[V:4]  [K:F] [K:clef=bass][M:4/2]G,4A,4 | 
[V:1] z4G4 | 
[V:2] d4G4 | 
[V:3] z4c4 | 
[V:4] G,4E,4 | 
[V:1] F4G4 | 
[V:2] A4G2c2 | 
[V:3] d4c4 | 
[V:4] D,2D,2E,2C,2 | 
[V:1] A4d4 | 
[V:2] c2f4d2 | 
[V:3] A4B2B2 | 
[V:4] F,4G,2G,2 | 
[V:1] c2d2e4 | 
[V:2] f2g3ea2- | 
[V:3] A2G2c4 | 
[V:4] A,2B,2A,4 | 
[V:1] f4e2d2- | 
[V:2] a2a2g2f2 | 
[V:3] d3Ac2d2 | 
[V:4] D,4z4 | 
[V:1] d2^c2d4 | 
[V:2] e4d4 | 
[V:3] A4B4 | 
[V:4] z8 | 
[V:1] A4B4- | 
[V:2] f4g3f | 
[V:3] d4G3A | 
[V:4] D,2F,2_E,3F, | 
[V:1] B2A4A2 | 
[V:2] d2f3ga2- | 
[V:3] B2c4A2 | 
[V:4] G,2F,G,A,B,C2 | 
[V:1] F2G2A4 | 
[V:2] a2d3ef2 | 
[V:3] B2AGF4 | 
[V:4] D4D,4 | 
[V:1] G2G2A2B2 | 
[V:2] B2c2d4- | 
[V:3] z8 | 
[V:4] _E,4D,2G,2 | 
[V:1] A2G2A2F2 | 
[V:2] d4d3c | 
[V:3] z2B2A2B2 | 
[V:4] F,2G,2D,4 | 
[V:1] G2c3BAG | 
[V:2] B2A2c2f2 | 
[V:3] G2A2F4 | 
[V:4] _E,2F,4C2 | 
[V:1] B2A3GG2- | 
[V:2] d2f3ed2- | 
[V:3] G2c3BAG | 
[V:4] B,2F,4G,2 | 
[V:1] G2^F2G4 | 
[V:2] d2d2B4 | 
[V:3] A4G4 | 
[V:4] D,4z2G,2 | 
[V:1] z8 | 
[V:2] c4c4 | 
[V:3] z4g4 | 
[V:4] F,2C,2E,4 | 
[V:1] z8 | 
[V:2] d3cB2A2 | 
[V:3] f2d2f4 | 
[V:4] D,8 | 
[V:1] z8 | 
[V:2] z2B4c2 | 
[V:3] g4g4 | 
[V:4] _E,8 | 
[V:1] z8 | 
[V:2] A2B2c2d2- | 
[V:3] a2g4f2 | 
[V:4] F,2_E,4D,2 | 
[V:1] z8 | 
[V:2] d2^c2d3=c/B/ | 
[V:3] e4d4 | 
[V:4] A,4z2D,2 | 
[V:1] z8 | 
[V:2] A2a3gg2- | 
[V:3] c2d2c2B2 | 
[V:4] F,6G,2 | 
[V:1] z2A2B4 | 
[V:2] g2^f2g4 | 
[V:3] A4G4 | 
[V:4] D,4z4 | 
[V:1] c4B2A2 | 
[V:2] e2f2d2e2- | 
[V:3] A4B2c2 | 
[V:4] z8 | 
[V:1] c4d4 | 
[V:2] e2e2d2g2- | 
[V:3] A4B4 | 
[V:4] z4G,4 | 
[V:1] z4d4 | 
[V:2] g2^f2g4 | 
[V:3] c4d4 | 
[V:4] A,4G,4 | 
[V:1] _e4d2d2 | 
[V:2] G3AB2d2- | 
[V:3] c2c2f4- | 
[V:4] C,4B,,4 | 
[V:1] B2c2d2G2 | 
[V:2] dcA2B3G | 
[V:3] f2e2d2e2- | 
[V:4] D,2C,2B,,2C,2- | 
[V:1] c2c4=B2 | 
[V:2] g8 | 
[V:3] e2c2d4 | 
[V:4] C,2C,2G,4 | 
[V:1] c4A2B2 | 
[V:2] a3gfed2 | 
[V:3] z8 | 
[V:4] F,6G,2 | 
[V:1] c3cc2c2 | 
[V:2] c2e2f4 | 
[V:3] z8 | 
[V:4] A,4F,4 | 
[V:1] c2c2c4 | 
[V:2] e4c4 | 
[V:3] g4f2e2 | 
[V:4] C,4F,2C,2 | 
[V:1] z4d2c2 | 
[V:2] A4z4 | 
[V:3] d2c2B2c2 | 
[V:4] F,4G,2A,2 | 
[V:1] B2A4B2 | 
[V:2] z4f4 | 
[V:3] d4d4 | 
[V:4] G,2F,2D,4 | 
[V:1] A2B2c4 | 
[V:2] e2f2g4 | 
[V:3] c2d2e4 | 
[V:4] z8 | 
[V:1] d4z4 | 
[V:2] f2g2a2g2 | 
[V:3] d4d4 | 
[V:4] D,2G,2F,2B,2 | 
[V:1] z4A4- | 
[V:2] f2g2e2f2- | 
[V:3] c2d2c3B | 
[V:4] A,2G,2A,2F,2 | 
[V:1] A4B4 | 
[V:2] fef2gfde | 
[V:3] A4G4 | 
[V:4] C4D4 | 
[V:1] A4F4 | 
[V:2] f4d4 | 
[V:3] F4A4 | 
[V:4] D,8 | 
[V:1] G2A3GG2- | 
[V:2] G2F2cBAG | 
[V:3] c4c4 | 
[V:4] C,2F,2C,2E,2 | 
[V:1] G2^F2G4 | 
[V:2] A4G2B2 | 
[V:3] d8 | 
[V:4] D,4z2G,2 | 
[V:1] z8 | 
[V:2] A2d2c2f2- | 
[V:3] z4z2d2 | 
[V:4] F,2G,2A,2B,2 | 
[V:1] z8 | 
[V:2] f2g4a2- | 
[V:3] c2d2e2f2 | 
[V:4] A,2G,3F,/E,/D,2 | 
[V:1] z8 | 
[V:2] agfed2B2 | 
[V:3] e2d2g3f | 
[V:4] A,2B,3A,G,2 | 
[V:1] z8 | 
[V:2] c2A4G2 | 
[V:3] edd4^c2 | 
[V:4] A,2F,2E,4 | 
[V:1] A2B2c2c2 | 
[V:2] A2z2a3g | 
[V:3] d3cA4 | 
[V:4] D,2G,2F,3G, | 
[V:1] c2B2c2d2- | 
[V:2] efg2a2b2- | 
[V:3] c2d2e2f2 | 
[V:4] A,2G,2C2B,2- | 
[V:1] dcc3AB2 | 
[V:2] bgg4g2 | 
[V:3] g2e2d2cB | 
[V:4] B,2C2G,4 | 
[V:1] c2d3cBA | 
[V:2] a2d2g2c2 | 
[V:3] A2B2G2c2- | 
[V:4] z2G,3E,F,E, | 
[V:1] c3BAGB2- | 
[V:2] _e4_e2g2 | 
[V:3] cBAGc2d2 | 
[V:4] C,4z2G,2 | 
[V:1] BAFGABc2 | 
[V:2] z4f2f2 | 
[V:3] _e2d4c2 | 
[V:4] _E,2B,2A,G,A,2 | 
[V:1] B2A3GG2- | 
[V:2] g2fd2c/B/c2 | 
[V:3] d4G4 | 
[V:4] G,2D,2_E,4 | 
[V:1] G2^F2G4 ||  
[V:2] d4d4 ||  
[V:3] A4G4 ||  
[V:4] D,4G,4 ||  
[V:1]  [K:F] [K:clef=treble][M:2/1]d8 | 
[V:2]  [K:F] [K:clef=treble-8][M:2/1]G6A2 | 
[V:3]  [K:F] [K:clef=treble-8][M:2/1]z8 | 
[V:4]  [K:F] [K:clef=bass][M:2/1]G,4G,4 | 
[V:1] G8 | 
[V:2] B2c3BAG | 
[V:3] z8 | 
[V:4] _E,4E,4 | 
[V:1] A4B4 | 
[V:2] F4G4 | 
[V:3] z8 | 
[V:4] D,4G,4 | 
[V:1] c8 | 
[V:2] A4a4 | 
[V:3] z8 | 
[V:4] F,8- | 
[V:1] c8 | 
[V:2] g2f2e4 | 
[V:3] z8 | 
[V:4] F,4A,4 | 
[V:1] d8 | 
[V:2] d4G2B2 | 
[V:3] z8 | 
[V:4] z2B,3G,G,2- | 
[V:1] c4B4 | 
[V:2] A4d3e | 
[V:3] z8 | 
[V:4] G,2^F,2G,4 | 
[V:1] A8 | 
[V:2] f2g4^f2 | 
[V:3] z8 | 
[V:4] D,8 | 
[V:1] G8 | 
[V:2] g8 | 
[V:3] G3AB2c2- | 
[V:4] E,8 | 
[V:1] A8 | 
[V:2] f4f4 | 
[V:3] c2c2c4 | 
[V:4] F,8 | 
[V:1] B4c4 | 
[V:2] d2g4f2- | 
[V:3] z4c4 | 
[V:4] G,4A,4 | 
[V:1] B4G4 | 
[V:2] f2g2d2e2 | 
[V:3] d4B2B2 | 
[V:4] z2G,4C,2 | 
[V:1] ^F8 | 
[V:2] d2cBA2d2- | 
[V:3] A8 | 
[V:4] D,4D,4 | 
[V:1] G4A4 | 
[V:2] d2c2d4 | 
[V:3] G4z4 | 
[V:4] E,4D,4 | 
[V:1] B8 | 
[V:2] G2B3AG2- | 
[V:3] d4d2d2- | 
[V:4] G,8 | 
[V:1] A8 | 
[V:2] G2^F2^F2E2 | 
[V:3] d2d2d4 | 
[V:4] D,4D,4 | 
[V:1] B4G4 | 
[V:2] G4B4 | 
[V:3] d8 | 
[V:4] G,2B,3A,G,2- | 
[V:1] A4B4 | 
[V:2] A4z2G2- | 
[V:3] d4d4 | 
[V:4] G,2^F,2G,4 | 
[V:1] A4G4- | 
[V:2] G2F2B4 | 
[V:3] d2d4d2 | 
[V:4] D,4G,4 | 
[V:1] G2^FEF4 | 
[V:2] A4A4 | 
[V:3] d2d2d4 | 
[V:4] D,4D,4 | 
[V:1] G8- | 
[V:2] G4B4 | 
[V:3] d8 | 
[V:4] G,4G,4 | 
[V:1] G8 | 
[V:2] c4B2G2 | 
[V:3] _e4d2B2 | 
[V:4] C,4G,4 | 
[V:1] z8 | 
[V:2] A4G4 | 
[V:3] c2d3cc2- | 
[V:4] F,4G,2E,2 | 
[V:1] z8 | 
[V:2] z8 | 
[V:3] c2B2A4 | 
[V:4] D,2G,4^F,2 | 
[V:1] d4B2c2 | 
[V:2] B3cd2e2 | 
[V:3] G4z4 | 
[V:4] G,4z4 | 
[V:1] d2e2f2e2 | 
[V:2] f2g2a2a2- | 
[V:3] z4z2A2 | 
[V:4] z8 | 
[V:1] d4z4 | 
[V:2] agg4^f2 | 
[V:3] B4c2c2 | 
[V:4] G,4A,4 | 
[V:1] B2B2A2B2 | 
[V:2] g3fe2d2 | 
[V:3] d4c2B2 | 
[V:4] G,4z4 | 
[V:1] c4d4 | 
[V:2] e4d2g2- | 
[V:3] A4z4 | 
[V:4] z4G,3F, | 
[V:1] z8 | 
[V:2] g2f2g2a2- | 
[V:3] d2c2d2e2 | 
[V:4] G,2A,2B,2C2 | 
[V:1] A4B4 | 
[V:2] a2d2g4 | 
[V:3] f4d2g2 | 
[V:4] D4G,4 | 
[V:1] A4F2G2 | 
[V:2] d2c2d2G2 | 
[V:3] f2e2d2c2- | 
[V:4] z2A,2D,2E,2 | 
[V:1] A2D2G2G2- | 
[V:2] z2d2e4 | 
[V:3] c2B2c4 | 
[V:4] F,2G,2C,4 | 
[V:1] G2^F2G4 | 
[V:2] d4B4 | 
[V:3] A4G4 | 
[V:4] D,4_E,4- | 
[V:1] G4F4 | 
[V:2] c4d2c2 | 
[V:3] z4A4 | 
[V:4] E,4D,2F,2 | 
[V:1] G4A4 | 
[V:2] _e4c2f2- | 
[V:3] B2c4c2 | 
[V:4] _E,2C,2F,3G, | 
[V:1] c8 | 
[V:2] fga4f2- | 
[V:3] c4z4 | 
[V:4] A,4A,4 | 
[V:1] d8 | 
[V:2] f2g4g2- | 
[V:3] z4B4 | 
[V:4] B,4G,4 | 
[V:1] G4A4 | 
[V:2] g2c2f4 | 
[V:3] c4d4 | 
[V:4] E,4D,4 | 
[V:1] B4z2c2- | 
[V:2] g4z2cd | 
[V:3] d4c4 | 
[V:4] G,4z2F,2 | 
[V:1] cBAGA4 | 
[V:2] efg4^f2 | 
[V:3] z8 | 
[V:4] C,2E,2D,4 | 
[V:1] G8 | 
[V:2] g3fed_e2- | 
[V:3] z8 | 
[V:4] G,3A,B,2C2- | 
[V:1] z8 | 
[V:2] e2dcB4 | 
[V:3] g8 | 
[V:4] C2B,A,G,4 | 
[V:1] B8 | 
[V:2] _e4d4 | 
[V:3] g8 | 
[V:4] z4G,4 | 
[V:1] c4c4 | 
[V:2] c4A2a2- | 
[V:3] f4e4 | 
[V:4] A,4C4 | 
[V:1] z8 | 
[V:2] a2gfg4 | 
[V:3] f4d4 | 
[V:4] B,8 | 
[V:1] c4c4 | 
[V:2] a4z2A2 | 
[V:3] e4f4 | 
[V:4] A,8 | 
[V:1] d8 | 
[V:2] B3cdef2- | 
[V:3] g4z4 | 
[V:4] G,4B,4 | 
[V:1] c4B4 | 
[V:2] fga4g2- | 
[V:3] z8 | 
[V:4] F,4G,4 | 
[V:1] A8 | 
[V:2] g2^f2^f2e2 | 
[V:3] z8 | 
[V:4] D8 | 
[V:1] G4z4 | 
[V:2] g8 | 
[V:3] z8 | 
[V:4] G,3A,B,2C2- | 
[V:1] z8 | 
[V:2] a8 | 
[V:3] z8 | 
[V:4] CB,A,G,F,2C2- | 
[V:1] z8 | 
[V:2] g4f4 | 
[V:3] z8 | 
[V:4] CDE4D2- | 
[V:1] z8 | 
[V:2] e8 | 
[V:3] z8 | 
[V:4] D2^C2C2=B,2 | 
[V:1] z8 | 
[V:2] d2f3ec2 | 
[V:3] z8 | 
[V:4] D4A,4 | 
[V:1] z8 | 
[V:2] e2d4^c2 | 
[V:3] z4g4 | 
[V:4] G,2F,2E,4 | 
[V:1] z8 | 
[V:2] d2G2B2A2- | 
[V:3] f2e2d2c2 | 
[V:4] D,2C,2B,,2F,2 | 
[V:1] z4d4 | 
[V:2] A2A2G4 | 
[V:3] d2c2B4 | 
[V:4] D,2F,2G,4 | 
[V:1] _e4d2d2 | 
[V:2] g4g2g2 | 
[V:3] c4B4 | 
[V:4] C,4G,4 | 
[V:1] d2c2B2c2 | 
[V:2] f2f2g2e2 | 
[V:3] z8 | 
[V:4] B,2A,2G,2C2 | 
[V:1] d4c2c2- | 
[V:2] f2g2e2f2 | 
[V:3] z8 | 
[V:4] B,2G,2A,2F,2 | 
[V:1] c2=B2c4 | 
[V:2] d4c4 | 
[V:3] z8 | 
[V:4] G,4A,4 | 
[V:1] (3:2:2A8A4- | 
[V:2] (3:2:2f8f4- | 
[V:3] (3:2:2c8d4 | 
[V:4] (3:2:2F,8D,4- | 
[V:1] (3:2:2A4B8 | 
[V:2] (3:2:2f4g8 | 
[V:3] (3:2:2d4d8 | 
[V:4] (3:2:2D,4G,8 | 
[V:1] (3:2:2c8G4- | 
[V:2] (3a4f4g4 | 
[V:3] (3:2:2A8B4 | 
[V:4] (3:2:2F,8_E,4 | 
[V:1] (3:2:2G4G8 | 
[V:2] (3:2:2_e8c4 | 
[V:3] (3c4B4G4 | 
[V:4] (3:2:2C,4_E,8 | 
[V:1] (3:2:2A8G4- | 
[V:2] (3:2:2d8B4 | 
[V:3] (3:2:2F8z4 | 
[V:4] (3:2:2D,8_E,4- | 
[V:1] (3:2:2G4E8 | 
[V:2] (3:2:2c8c4 | 
[V:3] (3:2:2G8A4- | 
[V:4] (3:2:2E,4C,8 | 
[V:1] (3F4F4E4 | 
[V:2] (3:2:2F8G4 | 
[V:3] (3A4B4c4 | 
[V:4] (3:2:2D,8C,4 | 
[V:1] (3:2:2F4G8 | 
[V:2] (3:2:2B8G4 | 
[V:3] (3:2:2d4B8 | 
[V:4] (3:2:2B,,4_E,8 | 
[V:1] (3:2:2A8z4 | 
[V:2] (3c4d4e4 | 
[V:3] (3:2:2A8A4 | 
[V:4] (3F,4D,4C,4 | 
[V:1] (3:2:2F8G4 | 
[V:2] (3:2:2d8e4 | 
[V:3] (3B6A2G4 | 
[V:4] (3:2:2B,,8B,4 | 
[V:1] (3A6B2c4 | 
[V:2] (3:2:2f8f4 | 
[V:3] (3F6G2A4 | 
[V:4] (3:2:2C8F,4 | 
[V:1] (3B4A6G2 | 
[V:2] (3:2:2d4f8 | 
[V:3] (3G4c4d4 | 
[V:4] (3G,4F,4D,4 | 
[V:1] (3:2:2G8^F4 | 
[V:2] (3:2:2d8d4 | 
[V:3] (3:2:2B4A8 | 
[V:4] (3:2:2G,4D,8 | 
[V:1] G8 | 
[V:2] d4e4 | 
[V:3] G8 | 
[V:4] z8 | 
[V:1] z8 | 
[V:2] f4g2c2- | 
[V:3] z8 | 
[V:4] D,4E,4 | 
[V:1] z8 | 
[V:2] c2d4B2 | 
[V:3] z8 | 
[V:4] F,4G,4 | 
[V:1] c4d4 | 
[V:2] A4G2G2 | 
[V:3] z4d4 | 
[V:4] A,2F,2B,4 | 
[V:1] c4A4 | 
[V:2] c2c2c4 | 
[V:3] e4f4 | 
[V:4] A,4A,4 | 
[V:1] B2B2A2B2 | 
[V:2] d8 | 
[V:3] g4z2g2 | 
[V:4] G,4F,2G,2 | 
[V:1] c8 | 
[V:2] z8 | 
[V:3] a2g2f2e2 | 
[V:4] F,2E,2A,4 | 
[V:1] d4z4 | 
[V:2] f4e2f2 | 
[V:3] d4c2d2 | 
[V:4] B,4z4 | 
[V:1] B2c2d4 | 
[V:2] g4f2a2- | 
[V:3] e4d2cB | 
[V:4] z8 | 
[V:1] c4z4 | 
[V:2] ag^fe^f4 | 
[V:3] A4A4 | 
[V:4] z8 | 
[V:1] B8 | 
[V:2] g4z4 | 
[V:3] G8 | 
[V:4] _E,8 | 
[V:1] A6B2 | 
[V:2] c6B2 | 
[V:3] z8 | 
[V:4] F,8- | 
[V:1] c8 | 
[V:2] A8 | 
[V:3] z8 | 
[V:4] F,8 | 
[V:1] B8 | 
[V:2] d6e2 | 
[V:3] G8 | 
[V:4] G,8 | 
[V:1] A8 | 
[V:2] f8 | 
[V:3] d8 | 
[V:4] z4F,4 | 
[V:1] G8 | 
[V:2] g4G4 | 
[V:3] _e8 | 
[V:4] C,8 | 
[V:1] G8 | 
[V:2] B4_e4 | 
[V:3] d4c4- | 
[V:4] G,4z4 | 
[V:1] d8 | 
[V:2] d4G4 | 
[V:3] c2=BA=B4 | 
[V:4] G,8 | 
[V:1] _e8 | 
[V:2] z4G4 | 
[V:3] c8 | 
[V:4] C,8 | 
[V:1] d4d4 | 
[V:2] B8 | 
[V:3] z4d4 | 
[V:4] B,,8 | 
[V:1] z4d4 | 
[V:2] A4G4 | 
[V:3] c4B4 | 
[V:4] F,4G,2G,2- | 
[V:1] c4B4 | 
[V:2] z4g4 | 
[V:3] A4d3c | 
[V:4] G,2^F,2G,4 | 
[V:1] c2d3cBA | 
[V:2] f4d4- | 
[V:3] A2B4G2- | 
[V:4] z4G,4- | 
[V:1] B2c3BAG | 
[V:2] d2f4g2 | 
[V:3] G2A3Bc2 | 
[V:4] G,2F,4E,2 | 
[V:1] F2G2A4 | 
[V:2] a2g4^f2 | 
[V:3] d8 | 
[V:4] D,2G,2D,4 | 
[V:1] G2B2A2G2 | 
[V:2] g4z4 | 
[V:3] B4c4- | 
[V:4] G,4F,2E,2 | 
[V:1] c8 | 
[V:2] g8- | 
[V:3] c2d2_e4 | 
[V:4] C,8 | 
[V:1] B4A4 | 
[V:2] g4f4 | 
[V:3] d8 | 
[V:4] G,4D,4 | 
[V:1] G4G4- | 
[V:2] _e8 | 
[V:3] B4c4 | 
[V:4] _E,4C,4 | 
[V:1] G2^F2F2E2 | 
[V:2] d8- | 
[V:3] A8 | 
[V:4] D,8 | 
[V:1] G8- | 
[V:2] d8- | 
[V:3] G8- | 
[V:4] z8 | 
[V:1] G8 |]  
[V:2] d8 |]  
[V:3] G8 |]  
[V:4] G,8 |]  



